static/logos/anima-glyph-color.svg

<svg width="44" height="50" viewBox="0 0 44 50" fill="none" xmlns="http://www.w3.org/2000/svg">
<g clip-path="url(#clip0_1_3521)">
<path d="M0.321666 -0.00105647H43.3816C43.4358 -0.00193932 43.4892 0.0110555 43.5368 0.0366887C43.5846 0.0623219 43.6248 0.0997375 43.6538 0.145367C43.683 0.190996 43.6998 0.243318 43.703 0.297336C43.706 0.351356 43.6954 0.405272 43.6716 0.453942C39.9596 7.9501 34.364 14.3536 27.4334 19.0373C16.2383 26.5907 4.965 27.3707 0.325 27.4123C0.282638 27.4131 0.240526 27.4057 0.201132 27.3901C0.161736 27.3745 0.125851 27.3511 0.095581 27.3215C0.0653114 27.2919 0.041267 27.2565 0.024854 27.2173C0.008441 27.1783 -9.28502e-06 27.1363 7.65594e-09 27.0939V0.317278C-2.2997e-06 0.275192 0.00834052 0.233522 0.0245464 0.194681C0.0407522 0.15584 0.0644998 0.120599 0.0944138 0.0909947C0.124328 0.0613907 0.159814 0.0380135 0.198822 0.0222131C0.23783 0.00641285 0.279582 -0.00149716 0.321666 -0.00105647Z" fill="#FF6250"/>
<path d="M9.615 49.9986C14.9252 49.9986 19.23 45.6938 19.23 40.3836C19.23 35.0734 14.9252 30.7686 9.615 30.7686C4.30478 30.7686 0 35.0734 0 40.3836C0 45.6938 4.30478 49.9986 9.615 49.9986Z" fill="#FFDF90"/>
<path d="M29.2727 49.4292C26.5527 48.3908 25.1059 45.3976 26.0277 42.7476L33.2859 22.0342C34.2159 19.3842 37.1743 18.0792 39.8943 19.1175C42.6143 20.1576 44.0609 23.1492 43.1393 25.8008L35.8809 46.5142C34.9509 49.1642 31.9927 50.4708 29.2727 49.4292Z" fill="#3366FF"/>
</g>
<defs>
<clipPath id="clip0_1_3521">
<rect width="44" height="50" fill="white"/>
</clipPath>
</defs>
</svg>

<svg xmlns="http://www.w3.org/2000/svg" width="56.32" height="64" fill="none" viewBox="0 0 44 50"><g clip-path="url(#a)"><path fill="#FF6250" d="M.322-.001h43.06a.316.316 0 0 1 .29.455 48.297 48.297 0 0 1-16.239 18.583C16.238 26.591 4.965 27.371.325 27.412A.32.32 0 0 1 0 27.094V.317A.318.318 0 0 1 .322 0Z"/><path fill="#FFDF90" d="M9.615 49.999a9.615 9.615 0 1 0 0-19.23 9.615 9.615 0 0 0 0 19.23Z"/><path fill="#36F" d="M29.273 49.43c-2.72-1.04-4.167-4.032-3.245-6.682l7.258-20.714c.93-2.65 3.888-3.955 6.608-2.916 2.72 1.04 4.167 4.031 3.245 6.683l-7.258 20.713c-.93 2.65-3.888 3.957-6.608 2.915Z"/></g><defs><clipPath id="a"><path fill="#fff" d="M0 0h44v50H0z"/></clipPath></defs></svg>
